!!!COM: Haydn, Franz Joseph
!!!OTL: Quartet 
!!!ONM: Opus 17, No. 1
!!!OMV: 1
!!!CDT: 1732/3/31/-1809/5/31/
!!!OCY: \O3sterreich
**kern	**kern	**kern	**kern
*clefF4	*clefC3	*clefG	*clefG
*k[f#c#g#d#]	*k[f#c#g#d#]	*k[f#c#g#d#]	*k[f#c#g#d#]
*E:	*E:	*E:	*E:
*M4/4	*M4/4	*M4/4	*M4/4
2..r	2..r	2..r	8r
.	.	.	-48r
.	.	.	8g#
.	.	.	=1
.	.	.	8g#
.	.	.	8b
.	.	.	8a
.	.	.	8f#
.	.	.	4e
8r	8r	8r	.
=1	=1	=1	.
4EE	4E	4B	.
.	.	.	8r
.	.	.	8g#
4BB	4A	4d#	.
.	.	.	=2
.	.	.	8a
.	.	.	8b
4E	4G#	4e	.
.	.	.	8cc#
.	.	.	8e
4r	4r	4r	.
.	.	.	4d#
=2	=2	=2	.
4C#	4E	4e	.
.	.	.	8r
.	.	.	8B
4AA	4A	4c#	.
.	.	.	=3
.	.	.	8f#
.	.	.	8a
4BB	4F#	4B	.
.	.	.	8g#
.	.	.	8e
4r	4r	4r	.
.	.	.	8cc#
.	.	.	4cc#
=3	=3	=3	.
4D#	4F#	4B	.
.	.	.	16dd#
.	.	.	16ee
4E	4G#	4B	.
.	.	.	=4
.	.	.	8b
.	.	.	16dd#
.	.	.	16ee
4AA	4A	4e	.
.	.	.	8b
.	.	.	16dd#
.	.	.	16ee
4A	4c#	4e	.
.	.	.	8b
.	.	.	8b
=4	=4	=4	.
4G#	4G#	4e	.
.	.	.	8b
.	.	.	16a
.	.	.	16g#
4G#	4G#	4e	.
.	.	.	=5
.	.	.	8f#
.	.	.	4f#
2G#	2B	[2e	.
.	.	.	8f#
.	.	.	8.f#
.	.	.	16g#
=5	=5	=5	.
4A	4c#	1e]	.
.	.	.	8a
.	.	.	8g#
4B	4B	.	.
.	.	.	=6
.	.	.	8f#
.	.	.	4f#
4.c#	4.A	.	.
.	.	.	16a
.	.	.	16g#
.	.	.	4e
8B	8B	.	.
=6	=6	=6	.
4A#	4c#	4e	.
.	.	.	8r
.	.	.	8e
4B	4B	4d#	.
.	.	.	=7
.	.	.	8g#
.	.	.	8b
4E	4E	4e	.
.	.	.	8a
.	.	.	8f#
4r	4r	4r	.
.	.	.	4e
=7	=7	=7	.
4EE	4E	4B	.
.	.	.	8r
.	.	.	8e
4BB	4A	4d#	.
.	.	.	=8
.	.	.	8g#
.	.	.	8cc#
4E	4G#	4e	.
.	.	.	8ee
.	.	.	8gg#
4r	4r	4r	.
.	.	.	4cc#
=8	=8	=8	.
2r	2r	2r	.
.	.	.	8b#
.	.	.	8ff#
.	.	.	=9
.	.	.	8dd#
.	.	.	8b#
[2G#	2d#	[2f#	.
.	.	.	8g#
.	.	.	8f#
.	.	.	4f#
=9	=9	=9	.
2G#]	4.B#	4.f#]	.
.	.	.	8e
.	.	.	8g#
.	.	.	=10
.	.	.	8b#
.	8G#	8d#	.
.	.	.	8cc#
2C#	2G#	4d#	.
.	.	.	8ee
.	.	.	8gg#
.	.	8c#	.
.	.	.	4b
.	.	8r	.
=10	=10	=10	.
2r	2r	2r	.
.	.	.	8a#
.	.	.	8ee
.	.	.	=11
.	.	.	8cc#
.	.	.	8a#
[2F#	4.c#	[2e	.
.	.	.	8f#
.	.	.	8a#
.	.	.	4a#
.	8F#	.	.
=11	=11	=11	.
1F#]	8A#	4.e]	.
.	.	.	8b
.	8c#	.	.
.	.	.	8ff#
.	8e	.	.
.	.	.	=12
.	.	.	8dd#
.	8c#	8e	.
.	.	.	8b
.	4c#	4e	.
.	.	.	8f#
.	.	.	8b#
.	8d#	4d#	.
.	.	.	4b#
.	8F#	.	.
=12	=12	=12	.
[1F#	8B	4.f#	.
.	.	.	8cc#
.	8d#	.	.
.	.	.	8gg#
.	8f#	.	.
.	.	.	=13
.	.	.	8ee
.	8d#	8f#	.
.	.	.	8cc#
.	4d#	4f#	.
.	.	.	8a#
.	.	.	8e
.	8e	4e	.
.	.	.	8d#
.	8F#	.	.
.	.	.	4b
=13	=13	=13	.
4.F#]	8A#	2e	.
.	8c#	.	.
.	.	.	[8b
.	8e	.	.
.	.	.	=14
.	.	.	8b]
8E	8E	.	.
.	.	.	4b
4D#	8D#	8d#	.
.	4f#	4b	.
.	.	.	4b
4D#	.	.	.
.	[8f#	[8a	.
.	.	.	4b
=14	=14	=14	.
4E	8f#]	8a]	.
.	4e	4g#	.
.	.	.	8b
4F#	.	.	.
.	.	.	=15
.	.	.	8b
.	4d#	4f#	.
.	.	.	8a#
4G#	.	.	.
.	.	.	8a#
.	4B	4e	.
.	.	.	8a#
4F#	.	.	.
.	.	.	4.a#
.	8B	8d#	.
=15	=15	=15	.
8F##	8d#	8c#	.
8F##	8d#	8c#	.
.	.	.	16b#
.	.	.	16cc#
8F##	8d#	8c#	.
.	.	.	=16
.	.	.	8cc#
8F##	8d#	8c#	.
.	.	.	8b#
8F##	8d#	8c#	.
.	.	.	8b#
8F##	8d#	8c#	.
.	.	.	8b#
8F##	8d#	8c#	.
.	.	.	4.b#
8F##	8d#	8c#	.
=16	=16	=16	.
8F#	8G#	8d#	.
8F#	8G#	8d#	.
.	.	.	16cc#
.	.	.	16dd#
8F#	8G#	8d#	.
.	.	.	=17
.	.	.	8dd#
8F#	8G#	8d#	.
.	.	.	8cc#
8F#	8G#	8d#	.
.	.	.	8cc#
8F#	8G#	8d#	.
.	.	.	8cc#
8F#	8G#	8d#	.
.	.	.	8cc#
8F#	8G#	8d#	.
.	.	.	8gg#
=17	=17	=17	.
2E	8G#	8G#	.
.	.	.	16ff#
.	.	.	16ee
.	8G#	8G#	.
.	.	.	16dd#
.	.	.	16cc#
.	8G#	8G#	.
.	.	.	=18
.	.	.	4b
.	8G#	8G#	.
4.E	8G#	4G#	.
.	.	.	16a#
.	.	.	16f#
.	8G#	.	.
.	.	.	8f#
.	8G#	[4c#	.
.	.	.	[4cc#
8E#	8G#	.	.
=18	=18	=18	.
8F#	8F#	8c#]	.
.	.	.	16cc#]
.	.	.	16f#
8F#	8F#	8c#	.
.	.	.	8f#
8F#	8F#	8c#	.
.	.	.	=19
.	.	.	16ee
.	.	.	16cc#
4r	4r	4r	.
.	.	.	8cc#
.	.	.	16aa#
.	.	.	16ff#
8F#	8f#	8A#	.
.	.	.	8ff#
8F#	8f#	8A#	.
.	.	.	16ccc#
.	.	.	16aa#
8r	8r	8r	.
.	.	.	8aa#
=19	=19	=19	.
8r	8r	8r	.
.	.	.	[4eee
8F#	8c#	8a#	.
8r	8r	8r	.
.	.	.	=20
.	.	.	8eee]
8F#	8c#	8a#	.
.	.	.	8ddd#
8r	8r	8r	.
.	.	.	8ccc#
8F#	8c#	8a#	.
.	.	.	8bb
8r	8r	8r	.
.	.	.	8aa#
8F#	8c#	8a#	.
.	.	.	8gg#
=20	=20	=20	.
4F#	4c#	4a#	.
.	.	.	8ff#
.	.	.	8ee
2.r	2r	2.r	.
.	.	.	=21
.	.	.	8dd#
.	.	.	8cc#
.	.	.	8b
.	.	.	8a#
.	8r	.	.
.	.	.	8g#
.	8g#	.	.
.	.	.	8f#
=21	=21	=21	.
2..r	8f#	8r	.
.	.	.	4e#
.	8e	8g#	.
.	8d#	8f#	.
.	.	.	=22
.	.	.	4.f#
.	8c#	8e	.
.	8B	8d#	.
.	8A#	8c#	.
.	.	.	8e#
.	[4B	[4d	.
.	.	.	4.f#
8G	.	.	.
=22	=22	=22	.
4.F#	8B]	8d]	.
.	8A#	8c#	.
.	.	.	8e#
.	8c#	8e	.
.	.	.	=23
.	.	.	[16f#
.	.	.	24f#]
8G	4B	4d	.
.	.	.	8d#
4.F#	.	.	.
.	.	.	8e
.	8A#	8c#	.
.	.	.	8f#
.	8c#	8e	.
.	.	.	=24
.	.	.	8g#
8G	[8B	[8d	.
.	.	.	8a#
=23	=23	=23	.
[1F#	8B]	8d]	.
.	.	.	8b
.	8A#	8c#	.
.	.	.	8cc#
.	8B	8d#	.
.	.	.	8dd#
.	8c#	8e	.
.	.	.	8cc#
.	[2F#	8f#	.
.	.	.	8dd#
.	.	8B	.
.	.	.	8ee
.	.	8c#	.
.	.	.	=25
.	.	.	16ee#
.	.	.	16ff#
.	.	8d#	.
.	.	.	16dd#
.	.	.	16b
=24	=24	=24	.
2F#]	2F#]	8e	.
.	.	.	16a#
.	.	.	16f#
.	.	8c#	.
.	.	.	16ee
.	.	.	16cc#
.	.	8d#	.
.	.	.	16ee#
.	.	.	16ff#
.	.	8A#	.
.	.	.	16dd#
.	.	.	16b
4.F#	4.F#	8B	.
.	.	.	16a#
.	.	.	16f#
.	.	8A#	.
.	.	.	16ee
.	.	.	16cc#
.	.	8B	.
.	.	.	=26
.	.	.	16ee#
.	.	.	16ff#
8E	8A#	8c#	.
.	.	.	16dd#
.	.	.	16b
=25	=25	=25	.
4D#	4F#	4B	.
.	.	.	16aa#
.	.	.	16bb
.	.	.	16b
.	.	.	16aa
8r	8r	8r	.
.	.	.	16ff##
.	.	.	16gg#
8F#	8A# 8F#	8c#	.
.	.	.	16e
.	.	.	16ee
4D#	4B 4F#	4B	.
.	.	.	16gg#
.	.	.	16ee
.	.	.	16ccc#
.	.	.	16aa#
8r	8r	8r	.
.	.	.	=27
.	.	.	8bb
8F#	8A# 8F#	8c#	.
.	.	.	8ccc#
=26	=26	=26	.
8D#	8B 8F#	8B	.
.	.	.	8ddd#
8r	8r	8r	.
.	.	.	8eee
8D#	8B	8f#	.
.	.	.	8fff#
8r	8r	8r	.
.	.	.	8ggg#
8E	8e	8B	.
.	.	.	8aaa
8r	8r	8r	.
.	.	.	8aaa
8E	8e	8b	.
.	.	.	=28
.	.	.	[16aaa
.	.	.	24aaa]
.	.	.	4r
8E	8c#	8f#	.
=27	=27	=27	.
8D#	8d#	2f#	.
.	.	.	=29
.	.	.	8.gg#
8AA#	8A#	.	.
8BB	8B	.	.
.	.	.	16ff##
.	.	.	16gg#
8C#	8c#	.	.
.	.	.	16ff##
.	.	.	16gg#
4D#	8d#	4B	.
.	.	.	16ff##
.	.	.	8gg#
.	8b	.	.
.	.	.	8gg#
8D#	8b	8ff#	.
.	.	.	8ff#
8D#	8b	8ff#	.
.	.	.	8ee
=28	=28	=28	.
[2D#	[2b	[2ff#	.
.	.	.	=30
.	.	.	16dd#
.	.	.	8.ff#
.	.	.	8ff#
.	.	.	32ee
4D#]	4b]	4ff#]	.
.	.	.	32dd#
.	.	.	32cc#
.	.	.	32b
.	.	.	2cc#
4r	4r	4r	.
=29	=29	=29	.
1r	1r	8.ee	.
.	.	.	=31
.	.	.	24ff#
.	.	.	24gg#
.	.	16dd#	.
.	.	.	24ff#
.	.	.	24dd#
.	.	16ee	.
.	.	.	24cc#
.	.	16dd#	.
.	.	.	24b
.	.	.	24a#
.	.	16ee	.
.	.	.	24g#
.	.	16dd#	.
.	.	.	24f#
.	.	.	24ee
.	.	8ee	.
.	.	.	24dd#
.	.	.	24cc#
.	.	.	24ff#
.	.	8ee	.
.	.	.	24gg#
.	.	.	24ff#
.	.	.	24dd#
.	.	8dd#	.
.	.	.	24cc#
.	.	.	24b
.	.	.	24a#
.	.	8cc#	.
.	.	.	24g#
.	.	.	24f#
.	.	.	24ee
=30	=30	=30	.
8F#	8f#	16b	.
.	.	.	24dd#
.	.	8.dd#	.
.	.	.	24cc#
.	.	.	=32
.	.	.	24ff#
8F#	8f#	.	.
.	.	.	24gg#
.	.	.	24ff#
.	.	.	24dd#
8F#	8f#	8dd#	.
.	.	.	24cc#
.	.	.	24b
.	.	.	24bb
8F#	8f#	8b	.
.	.	.	24aa#
.	.	.	24bb
.	.	.	24ff#
8F#	8f#	8b	.
.	.	.	24gg#
.	.	.	24aa
.	.	.	24gg#
8F#	8f#	8b	.
.	.	.	24ff#
.	.	.	24gg#
.	.	.	24g#
8F#	8e	8a#	.
.	.	.	24f#
.	.	.	24e
.	.	.	24gg#
8F#	8e	8a#	.
.	.	.	24ff#
.	.	.	24ee
.	.	.	24eee
=31	=31	=31	.
4D#	4d#	4B	.
.	.	.	24ccc#
.	.	.	24aa#
.	.	.	=33
.	.	.	24bb
.	.	.	24bb
.	.	.	24bb
.	.	.	24ccc#
8r	8r	8r	.
.	.	.	24ccc#
.	.	.	24ccc#
.	.	.	24ddd#
8F#	8A# 8F#	8c#	.
.	.	.	24ddd#
.	.	.	24ddd#
.	.	.	24eee
4D#	4B 4F#	4B	.
.	.	.	24eee
.	.	.	24eee
.	.	.	24fff#
.	.	.	24fff#
.	.	.	24fff#
.	.	.	24ggg#
8r	8r	8r	.
.	.	.	24ggg#
.	.	.	24ggg#
.	.	.	24aaa
8F#	8A# 8F#	8c#	.
.	.	.	24aaa
.	.	.	24aaa
.	.	.	24aaa
=32	=32	=32	.
8D#	8B 8F#	8B	.
.	.	.	24aaa
.	.	.	24aaa
.	.	.	=34
.	.	.	[16aaa
8r	8r	8r	.
.	.	.	24aaa]
.	.	.	4r
8D#	8B	8f#	.
8r	8r	8r	.
.	.	.	=35
.	.	.	8.gg#
8E	8B	8g#	.
8r	8r	8r	.
.	.	.	16ff##
.	.	.	16gg#
8E	8e	8b	.
.	.	.	16ff##
.	.	.	16gg#
8E	8c#	8f#	.
.	.	.	16ff##
.	.	.	8gg#
=33	=33	=33	.
8D#	8d#	2f#	.
.	.	.	8gg#
8AA#	8e	.	.
.	.	.	8ff#
8BB	8d#	.	.
.	.	.	8ee
8C#	8c#	.	.
.	.	.	=36
.	.	.	2dd#
4D#	8B	4B	.
.	8b	.	.
8D#	8cc	8ff#	.
8D#	8cc	8ff#	.
.	.	.	2cc#
=34	=34	=34	.
[2D#	[2cc	[2ff#	.
.	.	.	=37
.	.	.	2b#
4D#]	4cc]	4ff#]	.
4r	4r	4r	.
.	.	.	8b
=35	=35	=35	.
1r	1r	8.ee	.
.	.	.	8cc#
.	.	16dd#	.
.	.	.	8dd#
.	.	16ee	.
.	.	16dd#	.
.	.	.	8b
.	.	16ee	.
.	.	16dd#	.
.	.	.	=38
.	.	.	2a#
.	.	8ee	.
.	.	8ee	.
.	.	8dd#	.
.	.	8cc#	.
.	.	.	8a
=36	=36	=36	.
8F#	2f#	2b	.
.	.	.	8b
8F#	.	.	.
.	.	.	8cc#
8F#	.	.	.
.	.	.	8a
8F#	.	.	.
.	.	.	=39
.	.	.	[4g#
8F##	2e	2a#	.
8F##	.	.	.
.	.	.	32g#]
8F##	.	.	.
.	.	.	32a
.	.	.	32b
.	.	.	32cc#
.	.	.	32dd#
8F##	.	.	.
.	.	.	32ee
.	.	.	32ff#
.	.	.	64gg#
.	.	.	64aa#
.	.	.	4bb
=37	=37	=37	.
2G#	4d#	8f#	.
.	.	8g#	.
.	.	.	16aa#
.	2g#	8a	.
.	.	.	16gg#
.	.	.	16ff#
.	.	8f#	.
.	.	.	16ee
.	.	.	=40
.	.	.	16dd#
2C#	.	2e#	.
.	.	.	8.ff#
.	.	.	8ff#
.	[4c#	.	.
.	.	.	32ee
.	.	.	32dd#
.	.	.	32cc#
.	.	.	32b
.	.	.	2cc#
=38	=38	=38	.
2F#	4c#]	8e	.
.	.	8f#	.
.	2f#	8g#	.
.	.	8e	.
.	.	.	=41
.	.	.	4.b
2BB	.	2d#	.
.	4f#	.	.
.	.	.	8dd#
.	.	.	8ee
=39	=39	=39	.
8E	8e	8e	.
.	.	.	8ff#
8EE	8e	8gg# 8b	.
.	.	.	8gg#
4EE	4e	4gg# 4b	.
.	.	.	8a#
.	.	.	=42
.	.	.	4.b
2r	2r	2r	.
.	.	.	8d#
.	.	.	8e
=40	=40	=40	.
8F#	8f#	16b	.
.	.	8.dd#	.
.	.	.	8f#
8F#	8f#	.	.
.	.	.	8g#
8F#	8f#	8dd#	.
.	.	.	8A#
8F#	8f#	8b	.
.	.	.	=43
.	.	.	2A#
8F#	8f#	8b	.
8F#	8f#	8b	.
8F#	8f#	8a#	.
8F#	8A#	8e	.
.	.	.	4B
=41	=41	=41	.
[1BB	8B	8d#	.
.	8c#	8e	.
.	.	.	4r
.	8d#	8f#	.
.	8f#	8a	.
.	.	.	=44
.	.	.	16r
.	4.e	4.g#	.
.	.	.	24r
.	.	.	8ddd
.	.	.	8ccc#
.	.	.	8bb
.	8c#	8e	.
.	.	.	=45
.	.	.	4aa
=42	=42	=42	.
1BB]	8B	8d#	.
.	8c#	8e	.
.	.	.	4.r
.	8d#	8f#	.
.	8f#	8a	.
.	4.e	4.g#	.
.	.	.	8aa
.	.	.	8gg#
.	.	.	8ff#
.	8c#	8e	.
.	.	.	=46
.	.	.	4ee
=43	=43	=43	.
[2BB	2c#	2e	.
.	.	.	4.r
4BB]	4B	4d#	.
.	.	.	8ee
.	.	.	8dd#
8r	4r	4r	.
.	.	.	8cc#
8BB	.	.	.
.	.	.	=47
.	.	.	8b
=44	=44	=44	.
8B	2..r	2r	.
.	.	.	16ff##
8c#	.	.	.
.	.	.	16gg#
.	.	.	4.dd#
8d	.	.	.
8F#	.	.	.
4E#	.	8r	.
.	.	.	16aa#
.	.	8bb	.
.	.	.	16bb
.	.	.	[4dd#
4r	.	8aa	.
.	8c#	8gg#	.
.	.	.	=48
.	.	.	8dd#]
=45	=45	=45	.
2..r	8f#	4ff#	.
.	.	.	16ccc##
.	8g#	.	.
.	.	.	16ddd#
.	.	.	4.dd#
.	8a	4.r	.
.	8c#	.	.
.	4B#	.	.
.	.	.	8ccc#
.	.	8ff#	.
.	.	.	8bb
.	4r	8ee	.
.	.	.	8aa#
8G#	.	8dd#	.
.	.	.	=49
.	.	.	4.bb
=46	=46	=46	.
8c#	2..r	4cc#	.
8d#	.	.	.
8e	.	4.r	.
.	.	.	8aa#
8G#	.	.	.
.	.	.	8gg#
4F##	.	.	.
.	.	.	8ff#
.	.	8cc#	.
.	.	.	8ee
8r	.	8b	.
.	.	.	8dd#
8F##	8d#	8a#	.
.	.	.	=50
.	.	.	8dd#
=47	=47	=47	.
8G#	8d#	8b	.
.	.	.	8cc##
8G#	8d#	8b	.
.	.	.	4.cc##
8G#	8d#	8b	.
8G#	8d#	8b	.
8G#	8d#	8b	.
.	.	.	8bb
8G#	8d#	8b	.
.	.	.	8aa#
8G#	8d#	8b	.
.	.	.	8cc##
8G#	8d#	8b	.
.	.	.	=51
.	.	.	8ee#
=48	=48	=48	.
8F##	8d#	8a#	.
.	.	.	8dd#
8F##	8d#	8a#	.
.	.	.	4.dd#
8F##	8d#	8a#	.
8F##	8d#	8a#	.
8F##	8d#	8a#	.
.	.	.	8ff#
8F##	8d#	8a#	.
.	.	.	8dd#
8F##	8d#	8dd#	.
.	.	.	8cc#
8F##	8d#	8dd#	.
.	.	.	=52
.	.	.	8cc#
=49	=49	=49	.
8G#	8B	8d#	.
.	.	.	8b#
8G#	8B	8d#	.
.	.	.	4.b#
8G#	8B	8d#	.
8G#	8B	8d#	.
8G#	8B	8e	.
.	.	.	8dd#
8G#	8B	8e	.
.	.	.	8gg#
8G#	8B	8e	.
.	.	.	8b#
8G#	8B	8e	.
.	.	.	=53
.	.	.	8dd#
=50	=50	=50	.
8G#	8A#	8e#	.
.	.	.	8cc#
8G#	8A#	8e#	.
.	.	.	4.cc#
8G#	8A#	8e#	.
8G#	8A#	8e#	.
8G#	8A#	8e#	.
.	.	.	8cc#
8G#	8A#	8e#	.
.	.	.	8dd#
8G#	8A#	8e#	.
.	.	.	8ee
8G#	8A#	8e#	.
.	.	.	=54
.	.	.	8ee
=51	=51	=51	.
8F#	8A#	8A#	.
.	.	.	8dd#
8F#	8A#	8A#	.
.	.	.	4.dd#
8F#	8A#	8A#	.
8F#	8A#	8A#	.
8F#	8A#	8A#	.
.	.	.	8dd#
8F#	8A#	8A#	.
.	.	.	8ee
8F#	8A#	8A#	.
.	.	.	8ff#
8F#	8A#	8A#	.
.	.	.	=55
.	.	.	24ee
=52	=52	=52	24gg#
8F#	8G#	8d#	.
.	.	.	24ff#
.	.	.	24ee
.	.	.	24dd#
8F#	8G#	8d#	.
.	.	.	24cc#
.	.	.	24b#
.	.	.	24a#
8F#	8G#	8d#	.
.	.	.	24g#
.	.	.	24ff#
.	.	.	24ee
8F#	8G#	8d#	.
.	.	.	24dd#
.	.	.	24ee
.	.	.	24gg#
8F#	8G#	8d#	.
.	.	.	24ff#
.	.	.	24ee
.	.	.	24dd#
8F#	8G#	8d#	.
.	.	.	24cc#
.	.	.	24b#
.	.	.	24a#
8F#	8G#	8d#	.
.	.	.	24g#
.	.	.	24ff#
.	.	.	24ee
8F#	8G#	8d#	.
.	.	.	24dd#
.	.	.	=56
.	.	.	24ee
=53	=53	=53	24gg#
8E	8G#	8c#	.
.	.	.	24ff#
.	.	.	24ee
.	.	.	24dd#
8E	8G#	8c#	.
.	.	.	24ee
.	.	.	24ccc#
.	.	.	24bb
8E	8G#	8c#	.
.	.	.	24ccc#
.	.	.	24cc#
.	.	.	24gg#
8E	8G#	8c#	.
.	.	.	24bb
.	.	.	8aa
8E	8e	8g#	.
.	.	.	8fff#
8E	8e	8g#	.
.	.	.	8eee
8E	8e	8g#	.
.	.	.	8ddd#
8E	8e	8g#	.
.	.	.	=57
.	.	.	2ccc#
=54	=54	=54	.
8BB#	8f#	8g#	.
8BB#	8f#	8g#	.
8BB#	8f#	8g#	.
8BB#	8f#	8g#	.
.	.	.	2ddd#
8BB#	8d#	8g#	.
8BB#	8d#	8g#	.
8BB#	8d#	8g#	.
8BB#	8d#	8g#	.
.	.	.	=58
.	.	.	4ccc#
=55	=55	=55	.
4C#	4c#	4g#	.
.	.	.	8.a 8.ccc#
8r	8r	8r	.
8BB#	8d#	8g#	.
.	.	.	16ccc# 16a
.	.	.	4a 4ccc#
4C#	4c#	4g#	.
.	.	.	4r
8r	8r	8r	.
8B#	8d#	8g#	.
.	.	.	=59
.	.	.	4e
=56	=56	=56	.
8c#	8c#	8g#	.
8r	8r	8r	.
.	.	.	8.e
8E	8c#	8g#	.
8r	8r	8r	.
.	.	.	16e
.	.	.	4e
4F#	4c#	8f#	.
.	.	8aa	.
.	.	.	4r
4r	4r	8gg#	.
.	.	8ff#	.
.	.	.	=60
.	.	.	2e
=57	=57	=57	.
8G#	8g#	4ee	.
8G#	8g#	.	.
8G#	8g#	2cc#	.
8G#	8g#	.	.
.	.	.	2d
8G#	8f#	.	.
8G#	8f#	.	.
8G#	8f#	4b#	.
8G#	8f#	.	.
.	.	.	=61
.	.	.	8c#
=58	=58	=58	.
4A	4e	4cc#	.
.	.	.	8e#
.	.	.	8f#
8.A	8.a	8.ee	.
.	.	.	8b#
16A	16a	16ee	.
.	.	.	8cc#
4A	4a	4ee	.
.	.	.	8g#
.	.	.	8a
4r	4r	4r	.
.	.	.	8f#
.	.	.	=62
.	.	.	2e
=59	=59	=59	.
4FF##	4A#	4c#	.
8.FF##	8.A#	8.c#	.
16FF##	16A#	16c#	.
.	.	.	4d#
4FF##	4A#	4c#	.
.	.	.	8r
4r	4r	4r	.
.	.	.	8e
.	.	.	=63
.	.	.	8g#
=60	=60	=60	.
1GG#	2E	2c#	.
.	.	.	8b
.	.	.	8a
.	.	.	8f#
.	.	.	4e
.	2E#	2B	.
.	.	.	8r
.	.	.	8gg#
.	.	.	=64
.	.	.	8aa
=61	=61	=61	.
1AA	[1F#	[1A	.
.	.	.	8bb
.	.	.	8ccc#
.	.	.	8ee
.	.	.	4dd#
.	.	.	8r
.	.	.	8dd#
.	.	.	=65
.	.	.	8gg#
=62	=62	=62	.
[2BB	2F#]	2A]	.
.	.	.	8aa
.	.	.	8bb
.	.	.	8dd#
.	.	.	4cc#
4BB]	4F#	4A	.
.	.	.	8r
4r	4r	4r	.
.	.	.	8cc#
.	.	.	=66
.	.	.	8ff#
=63	=63	=63	.
4EE	4E	4B	.
.	.	.	8gg#
.	.	.	8aa
4BB	4A	4d#	.
.	.	.	8cc#
.	.	.	4b
4E	4G#	4e	.
.	.	.	8r
8r	4r	8r	.
.	.	.	8b
8e	.	8gg#	.
.	.	.	=67
.	.	.	8ee
=64	=64	=64	.
8c#	4.r	8ee	.
.	.	.	8ff#
8B	.	8dd#	.
.	.	.	8gg#
8A	.	8cc#	.
.	.	.	8a
8G#	8e	8b	.
.	.	.	8dd#
8F#	8f#	8a	.
.	.	.	8ee
8E	8g#	8g#	.
.	.	.	8ff#
8D#	8a	8f#	.
.	.	.	8b
8d#	8A	8ff#	.
.	.	.	=68
.	.	.	8ee
=65	=65	=65	.
8B	4B	8dd#	.
.	.	.	8ff#
8A	.	8cc#	.
.	.	.	8gg#
8G#	8r	8b	.
.	.	.	8gg#
8F#	8d#	8a	.
.	.	.	[2ff#
8E	8e	8g#	.
8D#	8f#	8f#	.
8C#	8g#	8e	.
8c#	8G#	8ee	.
.	.	.	=69
.	.	.	2ff#]
=66	=66	=66	.
8A	4A	8cc#	.
8G#	.	8b	.
8F#	8r	8a	.
8E	8c#	8g#	.
.	.	.	[2ee
8D#	8d#	8f#	.
8C#	8e	8e	.
8BB	8f#	8d#	.
8B	8F#	8dd#	.
.	.	.	=70
.	.	.	2ee]
=67	=67	=67	.
8G#	4G#	8b	.
8F#	.	8a	.
8E	2r	8g#	.
8A	.	8cc#	.
.	.	.	[2dd#
8F#	.	8a	.
8E	.	8g#	.
8D#	4b	8f#	.
8B	.	8dd#	.
.	.	.	=71
.	.	.	2dd#]
=68	=68	=68	.
8c#	1cc#	1ee	.
8d#	.	.	.
8e	.	.	.
8G#	.	.	.
.	.	.	[2cc#
8A	.	.	.
8B	.	.	.
8c#	.	.	.
8A#	.	.	.
.	.	.	=72
.	.	.	2cc#]
=69	=69	=69	.
8B	1b	1dd#	.
8c#	.	.	.
8d#	.	.	.
8F#	.	.	.
.	.	.	[2b
8G#	.	.	.
8A	.	.	.
8B	.	.	.
8G#	.	.	.
.	.	.	=73
.	.	.	2b]
=70	=70	=70	.
8A	1a	1cc#	.
8B	.	.	.
8c#	.	.	.
8E	.	.	.
.	.	.	[2ee
8F#	.	.	.
8G#	.	.	.
8A	.	.	.
8F#	.	.	.
.	.	.	=74
.	.	.	2ee]
=71	=71	=71	.
8G#	1g#	1b	.
8A	.	.	.
8B	.	.	.
8D#	.	.	.
.	.	.	4dd#
8E	.	.	.
8F#	.	.	.
.	.	.	4ee
8G#	.	.	.
8C#	.	.	.
.	.	.	=75
.	.	.	4ff#
=72	=72	=72	.
8F#	1f#	1a	.
8G#	.	.	.
.	.	.	8.aa 8.b
8A	.	.	.
8C#	.	.	.
.	.	.	16aa 16b
.	.	.	4aa 4b
8D#	.	.	.
8E	.	.	.
.	.	.	8r
8F#	.	.	.
.	.	.	8e
8D#	.	.	.
.	.	.	=76
.	.	.	8g#
=73	=73	=73	.
8E	2e	2.g	.
.	.	.	8b
8F#	.	.	.
.	.	.	8a
8G	.	.	.
.	.	.	8f#
8E	.	.	.
.	.	.	4e
8C	2g	.	.
8D#	.	.	.
.	.	.	8r
8E	.	4cc	.
.	.	.	8e
8C	.	.	.
.	.	.	=77
.	.	.	8a
=74	=74	=74	.
8AA	[1a	1cc	.
.	.	.	8b
8BB	.	.	.
.	.	.	8cc#
8C	.	.	.
.	.	.	8e
8AA	.	.	.
.	.	.	4d#
8FF#	.	.	.
8AA	.	.	.
.	.	.	8r
8EE	.	.	.
.	.	.	8B
8AA	.	.	.
.	.	.	=78
.	.	.	8f#
=75	=75	=75	.
4DD#	4a]	4b	.
.	.	.	8a
.	.	.	8g#
8.DD#	8.B	8.ff# 8.b	.
.	.	.	8e
16DD#	16B	16ff# 16b	.
.	.	.	8cc#
4DD#	4B	4ff# 4b	.
.	.	.	4cc#
4r	4r	4r	.
.	.	.	16dd#
.	.	.	16ee
.	.	.	=79
.	.	.	8b
=76	=76	=76	.
4EE	4E	4B	.
.	.	.	16dd#
.	.	.	16ee
.	.	.	8b
4BB	4A	4d#	.
.	.	.	16dd#
.	.	.	16ee
.	.	.	8b
4E	4G#	4e	.
.	.	.	8b
.	.	.	8b
4r	4r	4r	.
.	.	.	16a
.	.	.	16g#
.	.	.	=80
.	.	.	8f#
=77	=77	=77	.
4C#	4E	4e	.
.	.	.	4f#
4AA	4A	4c#	.
.	.	.	8f#
.	.	.	8.f#
4BB	4F#	4B	.
.	.	.	16g#
.	.	.	8a
4r	4r	4r	.
.	.	.	8g#
.	.	.	=81
.	.	.	8f#
=78	=78	=78	.
4D#	4F#	4B	.
.	.	.	4f#
4E	4G#	4B	.
.	.	.	16a
.	.	.	16g#
.	.	.	4e
4AA	4A	4e	.
.	.	.	8r
4A	4c#	4e	.
.	.	.	16b
.	.	.	16g#
.	.	.	=82
.	.	.	8f#
=79	=79	=79	.
4G#	4G#	4e	.
.	.	.	4f#
4G#	4G#	4e	.
.	.	.	8f#
.	.	.	8.f#
2G#	2B	[2e	.
.	.	.	16g#
.	.	.	8a
.	.	.	8g#
.	.	.	=83
.	.	.	8f#
=80	=80	=80	.
4A	4c#	1e]	.
.	.	.	4f#
4B	4B	.	.
.	.	.	4b
4.c#	4.A	.	.
.	.	.	4e
.	.	.	[8cc#
8B	8B	.	.
.	.	.	=84
.	.	.	8cc#]
=81	=81	=81	.
4A#	4c#	4e	.
.	.	.	16b
.	.	.	16a
.	.	.	16g#
4B	4B	4d#	.
.	.	.	16f#
.	.	.	16e#
.	.	.	16f#
.	.	.	16e#
4E	4E	4e	.
.	.	.	16f#
.	.	.	16e#
.	.	.	16f#
.	.	.	8c#
4r	4r	4r	.
.	.	.	8f#
.	.	.	=85
.	.	.	4e
=82	=82	=82	.
4A	4c#	[1e	.
.	.	.	16d#
4B	4B	.	.
.	.	.	16B
.	.	.	8B
.	.	.	[4f#
4.c#	4.A	.	.
.	.	.	16f#]
.	.	.	16B
.	.	.	8B
8B	8B	.	.
.	.	.	=86
.	.	.	16a
=83	=83	=83	.
4A#	4c#	4e]	.
.	.	.	16f#
.	.	.	8f#
.	.	.	16dd#
4B	2B	2d	.
.	.	.	16b
.	.	.	8b
.	.	.	16ff#
4G#	.	.	.
.	.	.	16dd#
.	.	.	8dd#
.	.	.	[4aa
4A	4A	4c#	.
.	.	.	=87
.	.	.	8aa]
=84	=84	=84	.
4.AA	4c#	4e	.
.	.	.	8gg#
.	.	.	8ff#
.	2.r	2.r	.
.	.	.	8ee
2r	.	.	.
.	.	.	8dd#
.	.	.	8ccc#
.	.	.	8bb
.	.	.	8aa
8r	.	.	.
.	.	.	=88
.	.	.	8gg#
=85	=85	=85	.
8r	8r	8r	.
.	.	.	8ff#
8BB	8F#	8A	.
.	.	.	8ee
8BB	8F#	8A	.
.	.	.	8dd#
4r	4r	4r	.
.	.	.	8cc#
.	.	.	8b
8BB	8A	8d#	.
.	.	.	4a#
8BB	8A	8d#	.
8r	8r	8r	.
.	.	.	=89
.	.	.	4.b
=86	=86	=86	.
8r	8r	8r	.
8BB	8f#	8d#	.
8r	8r	8r	.
.	.	.	8a#
8BB	8f#	8d#	.
.	.	.	4.b
8r	8r	8r	.
8BB	8f#	8d#	.
8r	8r	8r	.
.	.	.	8a#
8BB	8f#	8d#	.
.	.	.	=90
.	.	.	[16b
=87	=87	=87	.
4BB	4f#	4d#	.
.	.	.	24b]
.	.	.	8g#
.	.	.	8a
2.r	2r	2.r	.
.	.	.	8b
.	.	.	=91
.	.	.	8cc#
.	.	.	8dd#
.	.	.	8ee
.	8r	.	.
.	.	.	8ff#
.	8cc#	.	.
.	.	.	8gg#
=88	=88	=88	.
2..r	8b	8r	.
.	.	.	8ff#
.	8a	8cc#	.
.	.	.	8gg#
.	8g#	8b	.
.	.	.	8aa
.	8f#	8a	.
.	.	.	=92
.	.	.	16aa#
.	8e	8g#	16bb
.	.	.	16gg#
.	8d#	8f#	16ee
.	.	.	16dd#
.	[4e	[4g	16b
.	.	.	16aa
8c	.	.	16ff#
.	.	.	16aa#
=89	=89	=89	16bb
4.B	8e]	8g]	.
.	.	.	16gg#
.	.	.	16ee
.	8d#	8f#	.
.	.	.	16dd#
.	.	.	16b
.	8f#	8a	.
.	.	.	16aa
.	.	.	16ff#
8c	4e	4g	.
.	.	.	=93
.	.	.	16aa#
4.B	.	.	16bb
.	.	.	16gg#
.	8d#	8f#	16ee
.	.	.	16dd#
.	8f#	8a	16ee
.	.	.	16dd
8c	[8e	[8g	16b
.	.	.	16b#
=90	=90	=90	16cc#
[1B	8e]	8g]	.
.	.	.	16A
.	.	.	16a
.	8d#	8f#	.
.	.	.	16cc#
.	.	.	16a
.	8e	8g#	.
.	.	.	16ff#
.	.	.	16dd#
.	8f#	8a	.
.	.	.	=94
.	.	.	8ee
.	[2B	8b	.
.	.	.	8ff#
.	.	8e	.
.	.	.	8gg#
.	.	8f#	.
.	.	.	8aa
.	.	8g#	.
.	.	.	8bb
=91	=91	=91	.
2B]	2B]	8a	.
.	.	.	8ccc#
.	.	8f#	.
.	.	.	8ddd
.	.	8g#	.
.	.	.	8ddd
.	.	8d#	.
.	.	.	=95
.	.	.	[2ddd
4.B	4.B	8e	.
.	.	8d#	.
.	.	8e	.
8A	8d#	8f#	.
.	.	.	4ddd]
=92	=92	=92	.
4G#	4B	4g#	.
.	.	.	4r
8r	8r	8r	.
8B	8B 8D#	8f#	.
.	.	.	=96
.	.	.	8.ccc#
4G#	4B 4E	4e	.
.	.	.	16bb#
.	.	.	16ccc#
8r	8r	8r	16bb#
.	.	.	16ccc#
8B	8B 8D#	8f#	16bb#
.	.	.	8ccc#
=93	=93	=93	.
8G#	8E 8B	8e	.
.	.	.	8ccc#
8r	8r	8r	.
.	.	.	8bb
8G#	8e	8b	.
.	.	.	8aa
8r	8r	8r	.
.	.	.	=97
.	.	.	16gg#
8A	8e	8a	8.bb
8r	8r	8r	.
.	.	.	8bb
8A	8A	8e	.
.	.	.	32aa
.	.	.	32gg#
8A	8F#	8B	32ff#
.	.	.	32ee
.	.	.	2ff#
=94	=94	=94	.
8G#	8G#	2b	.
8D#	8d#	.	.
8E	8e	.	.
8F#	8f#	.	.
.	.	.	=98
.	.	.	24gg#
.	.	.	24bb
4G#	8g#	4e	.
.	.	.	24aa
.	.	.	24gg#
.	.	.	24ff#
.	8f#	.	.
.	.	.	24ee
.	.	.	24dd#
.	.	.	24cc#
8G#	8e	8bb	.
.	.	.	24b
.	.	.	24aa
.	.	.	24gg#
8G#	8e	8bb	.
.	.	.	24ff#
.	.	.	24gg#
.	.	.	24bb
=95	=95	=95	.
[2G#	[2e	[2bb	.
.	.	.	24aa
.	.	.	24gg#
.	.	.	24ff#
.	.	.	24ee
.	.	.	24dd#
.	.	.	24cc#
.	.	.	24b
.	.	.	24aa
.	.	.	24gg#
.	.	.	24ff#
.	.	.	=99
.	.	.	24gg#
.	.	.	24bb
4G#]	4e]	4bb]	.
.	.	.	24aa
.	.	.	24gg#
.	.	.	24ff#
.	.	.	24ee
.	.	.	24dd
.	.	.	24ff#
4r	4r	4r	.
.	.	.	24ee
.	.	.	24dd
.	.	.	24cc#
.	.	.	24b
.	.	.	24cc#
.	.	.	24b
=96	=96	=96	.
1r	1r	8.aa	.
.	.	.	24cc#
.	.	.	24c#
.	.	.	24B
.	.	.	24A
.	.	.	24cc#
.	.	16gg#	.
.	.	.	24b
.	.	16aa	.
.	.	.	24a
.	.	.	24aa
.	.	16gg#	.
.	.	.	24ff#
.	.	16aa	.
.	.	.	24dd#
.	.	.	=100
.	.	16gg#	24ee
.	.	.	24ee
.	.	8aa	.
.	.	.	24ee
.	.	.	24ff#
.	.	.	24ff#
.	.	8aa	.
.	.	.	24ff#
.	.	.	24gg#
.	.	.	24gg#
.	.	8gg#	.
.	.	.	24gg#
.	.	.	24aa
.	.	.	24aa
.	.	8ff#	.
.	.	.	24aa
.	.	.	24bb
.	.	.	24bb
=97	=97	=97	.
8B	8B	16ee	.
.	.	.	24bb
.	.	.	24ccc#
.	.	8.gg#	.
.	.	.	24ccc#
8B	8B	.	.
.	.	.	24ccc#
.	.	.	24ddd
.	.	.	24ddd
8B	8B	8gg#	.
.	.	.	24ddd
.	.	.	24ddd
.	.	.	24ddd
8B	8B	8ee	.
.	.	.	24ddd
.	.	.	=101
.	.	.	[2ddd
8B	8B	8ee	.
8B	8B	8ee	.
8B	8A	8dd#	.
8B	8A	8dd#	.
.	.	.	4ddd]
=98	=98	=98	.
4E	4G#	4ee	.
.	.	.	4r
8r	8r	8r	.
8BB	8f#	8dd#	.
.	.	.	=102
.	.	.	8.ccc#
4E	4e	4ee	.
.	.	.	16bb#
.	.	.	16ccc#
8r	8r	8r	16bb#
.	.	.	16ccc#
8BB	8f#	8dd#	16bb#
.	.	.	8ccc#
=99	=99	=99	.
8E	4e	8ee	.
.	.	.	8ccc#
8r	.	8r	.
.	.	.	8bb
8G#	8r	8e	.
.	.	.	8aa
8r	8B	8r	.
.	.	.	=103
.	.	.	2gg#
8A	8c#	8e	.
8r	8r	8r	.
8A	8a	8e	.
8A	8f#	8b	.
.	.	.	2ff#
=100	=100	=100	.
8G#	8g#	2b	.
8D#	8a	.	.
8E	8g#	.	.
8F#	8f#	.	.
.	.	.	=104
.	.	.	2ee#
4G#	4e	4e	.
8G#	8f	8bb	.
8G#	8f	8bb	.
.	.	.	8ee
=101	=101	=101	.
[2G#	[2f	[2bb	.
.	.	.	8ff#
.	.	.	8gg#
.	.	.	8ee
.	.	.	=105
.	.	.	2dd#
4G#]	4f]	4bb]	.
4r	4r	4r	.
.	.	.	8dd
=102	=102	=102	.
1r	1r	8.aa	.
.	.	.	8ee
.	.	.	8ff#
.	.	16gg#	.
.	.	16aa	.
.	.	.	8dd
.	.	16gg#	.
.	.	16aa	.
.	.	.	=106
.	.	16gg#	[8cc#
.	.	8aa	.
.	.	.	32cc#]
.	.	.	32a
.	.	8aa	32b
.	.	.	32cc#
.	.	.	32dd
.	.	.	32ee
.	.	8gg#	32ff#
.	.	.	32gg#
.	.	.	32aa
.	.	.	32bb
.	.	8ff#	32ccc#
.	.	.	32ddd#
.	.	.	8eee
=103	=103	=103	.
8B	2b	2ee	.
.	.	.	8ccc#
8B	.	.	.
.	.	.	8bb
8B	.	.	.
.	.	.	8aa
8B	.	.	.
.	.	.	=107
.	.	.	16gg#
8B#	2a	2dd#	8.bb
8B#	.	.	.
.	.	.	8bb
8B#	.	.	.
.	.	.	32aa
.	.	.	32gg#
8B#	.	.	32ff#
.	.	.	32ee
.	.	.	2ff#
=104	=104	=104	.
2c#	4g#	8b	.
.	.	8cc#	.
.	2cc#	8dd	.
.	.	8b	.
.	.	.	=108
.	.	.	4.ee
2F#	.	2a#	.
.	[4f#	.	.
.	.	.	8gg#
.	.	.	8aa
=105	=105	=105	.
2B	4f#]	8a	.
.	.	.	8bb
.	.	8b	.
.	.	.	8ccc#
.	2b	8cc#	.
.	.	.	8dd#
.	.	8a	.
.	.	.	=109
.	.	.	4.ee
2E	.	2g#	.
.	4b	.	.
.	.	.	8g#
.	.	.	8a
=106	=106	=106	.
8A	8cc#	8a	.
.	.	.	8b
8AA	8a	8cc# 8e	.
.	.	.	8cc#
4AA	4a	4cc# 4e	.
.	.	.	8d#
.	.	.	=110
.	.	.	2d#
2r	2r	2r	.
.	.	.	4e
=107	=107	=107	.
8BB	8B	16ee	.
.	.	8.gg#	.
8BB	8B	.	.
.	.	.	4r
8BB	8B	8gg#	.
8BB	8B	8ee	.
.	.	.	==
*	*	*	*-
!!!RWG: This file only contains pitch and duration data.
!!!RWG: Transposing instruments are not transposed.
8BB	8B	8ee
8BB	8B	8ee
8BB	8B	8dd#
8BB	8d#	8a
=108	=108	=108
1E	8e	8g#
.	8f#	8a
.	8g#	8b
.	8b	8dd
.	4.a	4.cc#
.	8F#	8A
=109	=109	=109
1EE	8E	8G#
.	8F#	8A
.	8G#	8B
.	8B	8d
.	4.A	4.c#
.	8F#	8A
=110	=110	=110
[2EE	2F#	2A
4EE]	4E	4G#
4r	4r	4r
==	==	==
*-	*-	*-
!!!RWG: This file only contains pitch and duration data.
!!!RWG: Transposing instruments are not transposed.
!!!RWG: Key is interpreted using the Humdrum key tool.
!!!SCA: 
!!!YOR: Trautwein Edition
!!!AGN: chamber; string quartet
!!!AFT: stage1
!!!ENC: F. Bennion
!!!END: 1997/04/15
!!!AST: classical
!!!YEC: Copyright 1994, Center for Computer Assisted Research in the Humanities
!!!YEM: Rights to all derivative electronic formats reserved.
!!!YEM: Refer to licensing agreement for further details.
!!!YEN: United States of America
!!!EED: W.B. Hewlett
!!!KEY: 3192344300
!!!EMD: Converted from MuseData to Humdrum Jul 30, 1999, by Bret Aarden using muse2kern.
!!!VTS: 3459007521
